packages/icons/svgs/duotone/Source=check-double.svg

<svg width="24" height="24" viewBox="0 0 24 24" fill="none" xmlns="http://www.w3.org/2000/svg">
<path fill-rule="evenodd" clip-rule="evenodd" d="M16.6402 4.23177C17.0645 4.58534 17.1218 5.2159 16.7682 5.64018L6.76822 17.6402C6.58835 17.856 6.32599 17.9862 6.04531 17.999C5.76464 18.0117 5.49156 17.9058 5.29289 17.7071L1.29289 13.7071C0.902369 13.3166 0.902369 12.6834 1.29289 12.2929C1.68342 11.9024 2.31658 11.9024 2.70711 12.2929L5.9328 15.5186L15.2318 4.35981C15.5853 3.93553 16.2159 3.87821 16.6402 4.23177Z" fill="black" style="fill:black;fill-opacity:1;"/>
<path opacity="0.5" fill-rule="evenodd" clip-rule="evenodd" d="M22.6402 4.23177C23.0645 4.58534 23.1218 5.2159 22.7682 5.64018L12.7682 17.6402C12.5884 17.856 12.326 17.9862 12.0453 17.999C11.7646 18.0117 11.4916 17.9058 11.2929 17.7071L10.2929 16.7071C9.90237 16.3166 9.90237 15.6834 10.2929 15.2929C10.6834 14.9024 11.3166 14.9024 11.7071 15.2929L11.9328 15.5186L21.2318 4.35981C21.5853 3.93553 22.2159 3.87821 22.6402 4.23177Z" fill="black" style="fill:black;fill-opacity:1;"/>
</svg>

<svg xmlns="http://www.w3.org/2000/svg" width="24" height="24" viewBox="0 0 24 24"><path fill-rule="evenodd" d="M16.64 4.232a1 1 0 0 1 .128 1.408l-10 12a1 1 0 0 1-1.475.067l-4-4a1 1 0 1 1 1.414-1.414l3.226 3.226 9.299-11.16a1 1 0 0 1 1.408-.127" clip-rule="evenodd"/><path fill-rule="evenodd" d="M22.64 4.232a1 1 0 0 1 .128 1.408l-10 12a1 1 0 0 1-1.475.067l-1-1a1 1 0 1 1 1.414-1.414l.226.226 9.299-11.16a1 1 0 0 1 1.408-.127" clip-rule="evenodd" opacity=".55"/></svg>
